svg/UnitedNations-Flags/flag-nz.svg

<svg xmlns="http://www.w3.org/2000/svg" xmlns:xlink="http://www.w3.org/1999/xlink" viewBox="0 0 256 256"><defs><g id="2"><g id="3" transform="translate(0-.325)"><path d="m0 0v.5l1-.5h-1"/><path d="m0 0v-.5l1 .5h-1" transform="matrix(.80902-.58779.58779.80902.191.588)"/></g><use height="600" transform="scale(-1 1)" width="1200" xlink:href="#3"/><use height="600" transform="matrix(.30902.95106-.95106.30902 0 0)" width="1200" xlink:href="#3"/><use height="600" transform="matrix(.30902-.95106.95106.30902 0 0)" width="1200" xlink:href="#3"/><use height="600" transform="matrix(-.30902.95106.95106.30902 0 0)" width="1200" xlink:href="#3"/></g><clipPath id="0"><path d="m0 0h600v300h-600v-300"/></clipPath><clipPath id="1"><path d="m0 0l300 150h-300v-150m300 0h300l-300 150v-150m0 150h300v150l-300-150m0 0v150h-300l300-150"/></clipPath></defs><path fill="#00247d" d="m0 69h256v128h-256z"/><g transform="matrix(.21333 0 0 .21333 0 69)"><path clip-path="url(#0)" d="m0 0l600 300m-600 0l600-300" stroke="#fff" stroke-width="60"/><path clip-path="url(#1)" d="m0 0l600 300m-600 0l600-300" stroke="#cc142b" stroke-width="40"/><g><path clip-path="url(#0)" d="m300 0v300m-300-150h600" stroke="#fff" stroke-width="100"/><path clip-path="url(#0)" d="m300 0v300m-300-150h600" stroke="#cc142b" stroke-width="60"/></g></g><g transform="matrix(.21333 0 0 .21333 0 69)"><g><use height="600" transform="matrix(40 0 0 40 900 120)" width="1200" xlink:href="#2" fill="#fff"/><use height="600" transform="matrix(30 0 0 30 900 120)" width="1200" xlink:href="#2" fill="#cc142b"/></g><g transform="matrix(.13917.99027-.99027.13917 1012.41-684.64)"><g><use height="600" transform="matrix(4.87106-34.65938 34.65938 4.87106 900 120)" width="1200" xlink:href="#2" fill="#fff"/><use height="600" transform="matrix(3.47933-24.7567 24.7567 3.47933 900 120)" width="1200" xlink:href="#2" fill="#cc142b"/></g><g><use height="600" transform="matrix(5.56692-39.61072 39.61072 5.56692 900 380)" width="1200" xlink:href="#2" fill="#fff"/><use height="600" transform="matrix(4.17519-29.70804 29.70804 4.17519 900 380)" width="1200" xlink:href="#2" fill="#cc142b"/></g></g><g><use height="600" transform="matrix(45 0 0 45 900 480)" width="1200" xlink:href="#2" fill="#fff"/><use height="600" transform="matrix(35 0 0 35 900 480)" width="1200" xlink:href="#2" fill="#cc142b"/></g></g></svg>

<?xml version="1.0" encoding="UTF-8" standalone="no"?>
<svg height="256" id="svg4214" inkscape:output_extension="org.inkscape.output.svg.inkscape" inkscape:version="0.46" sodipodi:docname="Flag_of_New_Zealand.svg" sodipodi:version="0.32" version="1.0" width="256" xmlns="http://www.w3.org/2000/svg" xmlns:cc="http://creativecommons.org/ns#" xmlns:dc="http://purl.org/dc/elements/1.1/" xmlns:inkscape="http://www.inkscape.org/namespaces/inkscape" xmlns:rdf="http://www.w3.org/1999/02/22-rdf-syntax-ns#" xmlns:sodipodi="http://sodipodi.sourceforge.net/DTD/sodipodi-0.dtd" xmlns:svg="http://www.w3.org/2000/svg" xmlns:xlink="http://www.w3.org/1999/xlink">
  <metadata>
    <rdf:RDF xmlns:cc="http://web.resource.org/cc/" xmlns:dc="http://purl.org/dc/elements/1.1/" xmlns:rdf="http://www.w3.org/1999/02/22-rdf-syntax-ns#">
      <cc:Work rdf:about="">
        <dc:title></dc:title>
        <dc:description></dc:description>
        <dc:subject>
          <rdf:Bag>
            <rdf:li>unsorted</rdf:li>
          </rdf:Bag>
        </dc:subject>
        <dc:publisher>
          <cc:Agent rdf:about="http://www.openclipart.org/">
            <dc:title>Open Clip Art Library, Source: Wikimedia Commons, Source: Wikimedia Commons, Source: Wikimedia Commons, Source: Wikimedia Commons</dc:title>
          </cc:Agent>
        </dc:publisher>
        <dc:creator>
          <cc:Agent>
            <dc:title></dc:title>
          </cc:Agent>
        </dc:creator>
        <dc:rights>
          <cc:Agent>
            <dc:title></dc:title>
          </cc:Agent>
        </dc:rights>
        <dc:date></dc:date>
        <dc:format>image/svg+xml</dc:format>
        <dc:type rdf:resource="http://purl.org/dc/dcmitype/StillImage"/>
        <cc:license rdf:resource="http://en.wikipedia.org/wiki/Public_domain"/>
        <dc:language>en</dc:language>
      </cc:Work>
    </rdf:RDF>
  </metadata>
  <sodipodi:namedview bordercolor="#666666" borderopacity="1.0" gridtolerance="10.0" guidetolerance="10.0" id="base" inkscape:current-layer="svg4214" inkscape:cx="600" inkscape:cy="300" inkscape:pageopacity="0.0" inkscape:pageshadow="2" inkscape:window-height="821" inkscape:window-width="848" inkscape:window-x="62" inkscape:window-y="88" inkscape:zoom="0.46583333" objecttolerance="10.0" pagecolor="#ffffff" showgrid="false"/>
  <defs id="defs4216">
    <inkscape:perspective id="perspective4274" inkscape:persp3d-origin="600 : 200 : 1" inkscape:vp_x="0 : 300 : 1" inkscape:vp_y="0 : 1000 : 0" inkscape:vp_z="1200 : 300 : 1" sodipodi:type="inkscape:persp3d"/>
    <clipPath id="Canton">
      <path d="M 0,0 L 600,0 L 600,300 L 0,300 L 0,0 z" id="path4219"/>
    </clipPath>
    <clipPath id="Diagonals">
      <path d="M 0,0 L 300,150 L 0,150 L 0,0 z M 300,0 L 600,0 L 300,150 L 300,0 z M 300,150 L 600,150 L 600,300 L 300,150 z M 300,150 L 300,300 L 0,300 L 300,150 z" id="path4222"/>
    </clipPath>
    <g id="Pentagram">
      <g id="Arm" transform="translate(0,-0.324925)">
        <path d="M 0,0 L 0,0.5 L 1,0 L 0,0 z" id="path4226"/>
        <path d="M 0,0 L 0,-0.5 L 1,0 L 0,0 z" id="path4228" transform="matrix(0.809017,-0.5877853,0.5877853,0.809017,0.190983,0.5877853)"/>
      </g>
      <use height="600" id="use4230" transform="scale(-1,1)" width="1200" x="0" xlink:href="#Arm" y="0"/>
      <use height="600" id="use4232" transform="matrix(0.309017,0.9510565,-0.9510565,0.309017,0,0)" width="1200" x="0" xlink:href="#Arm" y="0"/>
      <use height="600" id="use4234" transform="matrix(0.309017,-0.9510565,0.9510565,0.309017,0,0)" width="1200" x="0" xlink:href="#Arm" y="0"/>
      <use height="600" id="use4236" transform="matrix(-0.309017,0.9510565,0.9510565,0.309017,0,0)" width="1200" x="0" xlink:href="#Arm" y="0"/>
    </g>
  </defs>
  <rect height="128.00031" id="rect4238" style="fill:#00247d" width="256" x="0" y="68.999687"/>
  <g id="Flag_of_the_United_Kingdom" transform="matrix(0.2133333,0,0,0.2133338,0,68.999691)">
    <path clip-path="url(#Canton)" d="M 0,0 L 600,300 M 0,300 L 600,0" id="Saint_Andrews_Cross" style="stroke:#ffffff;stroke-width:60"/>
    <path clip-path="url(#Diagonals)" d="M 0,0 L 600,300 M 0,300 L 600,0" id="Saint_Patricks_Cross" style="stroke:#cc142b;stroke-width:40"/>
    <g id="Saint_Georges_Cross">
      <path clip-path="url(#Canton)" d="M 300,0 L 300,300 M 0,150 L 600,150" id="path4244" style="stroke:#ffffff;stroke-width:100"/>
      <path clip-path="url(#Canton)" d="M 300,0 L 300,300 M 0,150 L 600,150" id="path4246" style="stroke:#cc142b;stroke-width:60"/>
    </g>
  </g>
  <g id="Southern_Cross" transform="matrix(0.2133333,0,0,0.2133338,0,68.999691)">
    <g id="Gamma_Crucis">
      <use height="600" id="use4250" style="fill:#ffffff" transform="matrix(40,0,0,40,900,120)" width="1200" x="0" xlink:href="#Pentagram" y="0"/>
      <use height="600" id="use4252" style="fill:#cc142b" transform="matrix(30,0,0,30,900,120)" width="1200" x="0" xlink:href="#Pentagram" y="0"/>
    </g>
    <g id="g4254" transform="matrix(0.1391731,0.9902681,-0.9902681,0.1391731,1012.4085,-684.64281)">
      <g id="Delta_Crucis">
        <use height="600" id="use4257" style="fill:#ffffff" transform="matrix(4.8710585,-34.659382,34.659382,4.8710585,900,120)" width="1200" x="0" xlink:href="#Pentagram" y="0"/>
        <use height="600" id="use4259" style="fill:#cc142b" transform="matrix(3.4793275,-24.756702,24.756702,3.4793275,900,120)" width="1200" x="0" xlink:href="#Pentagram" y="0"/>
      </g>
      <g id="Beta_Crucis">
        <use height="600" id="use4262" style="fill:#ffffff" transform="matrix(5.566924,-39.610723,39.610723,5.566924,900,380)" width="1200" x="0" xlink:href="#Pentagram" y="0"/>
        <use height="600" id="use4264" style="fill:#cc142b" transform="matrix(4.175193,-29.708042,29.708042,4.175193,900,380)" width="1200" x="0" xlink:href="#Pentagram" y="0"/>
      </g>
    </g>
    <g id="Alpha_Crucis">
      <use height="600" id="use4267" style="fill:#ffffff" transform="matrix(45,0,0,45,900,480)" width="1200" x="0" xlink:href="#Pentagram" y="0"/>
      <use height="600" id="use4269" style="fill:#cc142b" transform="matrix(35,0,0,35,900,480)" width="1200" x="0" xlink:href="#Pentagram" y="0"/>
    </g>
  </g>
</svg>
